assets/svg/icon_chat_emptystate.svg

<svg width="48" height="48" viewBox="0 0 48 48" fill="none" xmlns="http://www.w3.org/2000/svg">
<path d="M26.6081 5.22414C27.2831 5.22414 27.8325 4.67477 27.8325 3.99977C27.8325 3.32477 27.2831 2.77539 26.6081 2.77539H21.3937C20.7188 2.77539 20.1694 3.32477 20.1694 3.99977C20.1694 4.67477 20.7188 5.22414 21.3937 5.22414H26.6081ZM27.1762 3.99977C27.1762 4.31289 26.9213 4.56789 26.6081 4.56789H25.2834C25.6556 4.30352 25.92 3.89945 26.0025 3.43258H26.6081C26.9213 3.43164 27.1762 3.68664 27.1762 3.99977ZM18.3281 44.2626C18.3281 44.4435 18.4753 44.5907 18.6563 44.5907H29.3466C29.5275 44.5907 29.6747 44.4435 29.6747 44.2626C29.6747 44.0816 29.5275 43.9345 29.3466 43.9345H18.6563C18.4744 43.9345 18.3281 44.0816 18.3281 44.2626Z" fill="#9A9A9A"/>
<path d="M30.9569 1.17188H17.0444C14.4137 1.17188 12.2734 3.31219 12.2734 5.94281V8.77406C12.2734 8.955 12.4206 9.10219 12.6016 9.10219C12.7825 9.10219 12.9297 8.955 12.9297 8.77406V5.94281C12.9297 3.67406 14.7756 1.82812 17.0444 1.82812H30.9569C33.2256 1.82812 35.0716 3.67406 35.0716 5.94281V42.0581C35.0716 44.3269 33.2256 46.1728 30.9569 46.1728H17.0444C14.7756 46.1728 12.9297 44.3269 12.9297 42.0581V11.0016C12.9297 10.8206 12.7825 10.6734 12.6016 10.6734C12.4206 10.6734 12.2734 10.8206 12.2734 11.0016V42.0572C12.2734 44.6878 14.4137 46.8281 17.0444 46.8281H30.9569C33.5875 46.8281 35.7278 44.6878 35.7278 42.0572V5.94281C35.7269 3.31219 33.5866 1.17188 30.9569 1.17188Z" fill="#9A9A9A"/>
<path d="M31.4294 38.8335H16.8734C16.0634 38.8335 15.4062 38.1763 15.4062 37.3663V34.9363C15.4062 34.2998 15.9228 33.7832 16.5594 33.7832H29.4691C30.6916 33.7832 31.7641 34.597 32.0941 35.7745L32.5403 37.3691C32.7456 38.1051 32.1934 38.8335 31.4294 38.8335Z" fill="#E1EAF8"/>
<path d="M17.3812 13.35H30.6195C31.7394 13.35 32.65 14.2621 32.65 15.3911V25.8894C32.65 27.0183 31.7395 27.9305 30.6188 27.9305H24.093C23.7667 27.9305 23.4538 28.0602 23.2228 28.2922L19.9137 31.615C19.8427 31.6863 19.716 31.6393 19.716 31.5306V29.164C19.716 28.4845 19.1675 27.9305 18.4862 27.9305H17.3812C16.2605 27.9305 15.35 27.0183 15.35 25.8894V15.3911C15.35 14.2622 16.2605 13.35 17.3812 13.35Z" stroke="#9A9A9A" stroke-width="0.7"/>
<path fill-rule="evenodd" clip-rule="evenodd" d="M20.25 18.3571C20.25 17.4695 20.9695 16.75 21.8571 16.75C22.7447 16.75 23.4642 17.4695 23.4642 18.3571V19.2593C23.4642 19.2665 23.4642 19.2738 23.4643 19.281C23.4644 19.3631 23.4646 19.4487 23.4441 19.5254C23.3893 19.7297 23.2297 19.8893 23.0254 19.9441C22.9487 19.9646 22.8631 19.9644 22.781 19.9643C22.7738 19.9642 22.7665 19.9642 22.7593 19.9642H21.8571C20.9695 19.9642 20.25 19.2447 20.25 18.3571Z" stroke="#0166FF" stroke-width="0.7"/>
<path d="M25.2406 21.0358L25.219 21.0357C25.1369 21.0356 25.0513 21.0354 24.9746 21.0559C24.7703 21.1107 24.6107 21.2703 24.5559 21.4746C24.5354 21.5513 24.5356 21.6369 24.5357 21.719L24.5358 21.7406V22.6429C24.5358 23.5305 25.2553 24.25 26.1429 24.25C27.0305 24.25 27.75 23.5305 27.75 22.6429C27.75 21.7553 27.0305 21.0358 26.1429 21.0358H25.2406Z" stroke="#0166FF" stroke-width="0.7"/>
<path fill-rule="evenodd" clip-rule="evenodd" d="M22.9121 21.0412C22.9842 21.047 23.0631 21.0605 23.141 21.1002C23.2524 21.157 23.343 21.2476 23.3998 21.359C23.4395 21.4369 23.453 21.5158 23.4588 21.5879C23.4643 21.6548 23.4643 21.7348 23.4643 21.822V22.6429C23.4643 23.5305 22.7447 24.25 21.8571 24.25C20.9695 24.25 20.25 23.5305 20.25 22.6429C20.25 21.7552 20.9695 21.0357 21.8571 21.0357H22.678C22.7652 21.0357 22.8452 21.0357 22.9121 21.0412Z" stroke="#0166FF" stroke-width="0.7"/>
<path fill-rule="evenodd" clip-rule="evenodd" d="M24.5357 18.3571C24.5357 17.4695 25.2552 16.75 26.1429 16.75C27.0305 16.75 27.75 17.4695 27.75 18.3571C27.75 19.2447 27.0305 19.9643 26.1429 19.9643H25.1762C25.1731 19.9643 25.17 19.9643 25.1669 19.9643C25.1317 19.9643 25.0952 19.9643 25.0615 19.9606C24.787 19.9296 24.5704 19.713 24.5394 19.4385C24.5357 19.4048 24.5357 19.3683 24.5357 19.3331C24.5357 19.33 24.5357 19.3269 24.5357 19.3238V18.3571Z" stroke="#0166FF" stroke-width="0.7"/>
<path d="M5.97714 14C5.74857 14 5.61143 13.8629 5.56571 13.6343C5.38286 12.8571 5.01714 12.1257 4.42286 11.5314C3.82857 10.9371 3.14286 10.5714 2.36571 10.3886C2.13714 10.3886 2 10.2057 2 10.0229C2 9.84 2.13714 9.65714 2.36571 9.61143C3.14286 9.47428 3.87429 9.06285 4.46857 8.46857C5.06286 7.87428 5.42857 7.18857 5.61143 6.36571C5.65714 6.13714 5.84 6 6.02286 6C6.20572 6 6.38857 6.13714 6.43429 6.36571C6.61714 7.14286 6.98286 7.87428 7.57714 8.46857C8.17143 9.06285 8.85714 9.42857 9.68 9.61143C9.90857 9.65714 10.0457 9.84 10.0457 10.0229C10.0457 10.2057 9.90857 10.3886 9.68 10.4343C8.08 10.7543 6.8 12.0343 6.48 13.6343C6.34286 13.8629 6.20571 14 5.97714 14ZM3.32571 10.0229C3.92 10.2514 4.46857 10.6171 4.92571 11.0743C5.38286 11.5314 5.74857 12.08 5.97714 12.6743C6.48 11.44 7.44 10.48 8.62857 9.97714C8.03429 9.74857 7.48571 9.38285 7.02857 8.92571C6.57143 8.46857 6.20571 7.92 5.97714 7.32571C5.74857 7.92 5.38286 8.46857 4.92571 8.92571C4.46857 9.42857 3.92 9.79428 3.32571 10.0229Z" fill="#0166FF"/>
<path d="M41.4686 38.9371C40.0971 38.9371 39 37.84 39 36.4686C39 35.0971 40.0971 34 41.4686 34C42.84 34 43.9371 35.0971 43.9371 36.4686C43.9371 37.84 42.7943 38.9371 41.4686 38.9371ZM41.4686 34.7314C40.5086 34.7314 39.6857 35.5086 39.6857 36.5143C39.6857 37.4743 40.4629 38.2971 41.4686 38.2971C42.4286 38.2971 43.2514 37.52 43.2514 36.5143C43.2514 35.5086 42.4286 34.7314 41.4686 34.7314Z" fill="#0166FF"/>
</svg>

<svg xmlns="http://www.w3.org/2000/svg" width="48" height="48" fill="none"><path fill="#9A9A9A" d="M26.608 5.224c.675 0 1.224-.55 1.224-1.224 0-.675-.549-1.225-1.224-1.225h-5.214a1.226 1.226 0 0 0 0 2.449zM27.176 4a.57.57 0 0 1-.568.568h-1.325c.373-.264.637-.669.72-1.135h.605c.313-.001.568.254.568.567m-8.848 40.263c0 .18.147.328.328.328h10.69a.328.328 0 0 0 0-.657h-10.69a.33.33 0 0 0-.328.329"/><path fill="#9A9A9A" d="M30.957 1.172H17.044a4.776 4.776 0 0 0-4.77 4.77v2.832a.329.329 0 0 0 .656 0V5.943a4.12 4.12 0 0 1 4.114-4.115h13.913a4.12 4.12 0 0 1 4.115 4.115v36.115a4.12 4.12 0 0 1-4.115 4.115H17.044a4.12 4.12 0 0 1-4.114-4.115V11.002a.329.329 0 0 0-.657 0v31.055c0 2.63 2.14 4.771 4.771 4.771h13.913c2.63 0 4.77-2.14 4.77-4.77V5.942c0-2.63-2.14-4.771-4.77-4.771"/><path fill="#E1EAF8" d="M31.43 38.834H16.872c-.81 0-1.467-.658-1.467-1.468v-2.43c0-.636.517-1.153 1.153-1.153h12.91c1.223 0 2.295.814 2.625 1.992l.446 1.594a1.154 1.154 0 0 1-1.11 1.465"/><path stroke="#9A9A9A" stroke-width=".7" d="M17.381 13.35H30.62c1.12 0 2.031.912 2.031 2.041V25.89c0 1.13-.91 2.041-2.031 2.041h-6.526c-.326 0-.64.13-.87.362l-3.31 3.323a.116.116 0 0 1-.197-.084v-2.367c0-.68-.549-1.234-1.23-1.234h-1.105a2.036 2.036 0 0 1-2.031-2.04V15.39c0-1.129.91-2.041 2.031-2.041Z"/><path stroke="#0166FF" stroke-width=".7" d="M20.25 18.357a1.607 1.607 0 1 1 3.214 0v.924c0 .082 0 .168-.02.244a.59.59 0 0 1-.419.42c-.076.02-.162.02-.244.02h-.924c-.887 0-1.607-.72-1.607-1.608Z" clip-rule="evenodd"/><path stroke="#0166FF" stroke-width=".7" d="M25.24 21.036h-.021c-.082 0-.168 0-.244.02a.59.59 0 0 0-.42.419c-.02.076-.02.162-.02.244v.924a1.607 1.607 0 1 0 1.608-1.607z"/><path stroke="#0166FF" stroke-width=".7" d="M22.912 21.041c.072.006.151.02.229.06a.6.6 0 0 1 .259.258c.04.078.053.157.059.229q.006.102.005.234v.82a1.607 1.607 0 1 1-1.607-1.606h.821q.132-.001.234.005ZM24.536 18.357a1.607 1.607 0 1 1 1.607 1.607h-.977q-.052 0-.105-.003a.59.59 0 0 1-.522-.522q-.004-.051-.003-.106v-.976Z" clip-rule="evenodd"/><path fill="#0166FF" d="M5.977 14c-.228 0-.366-.137-.411-.366-.183-.777-.549-1.508-1.143-2.103a4.2 4.2 0 0 0-2.057-1.142.36.36 0 0 1-.366-.366c0-.183.137-.366.366-.412.777-.137 1.508-.548 2.103-1.142.594-.595.96-1.28 1.142-2.103.046-.229.229-.366.412-.366s.366.137.411.366c.183.777.549 1.508 1.143 2.103.594.594 1.28.96 2.103 1.142.229.046.366.229.366.412s-.137.366-.366.411a4.11 4.11 0 0 0-3.2 3.2c-.137.229-.274.366-.503.366m-2.651-3.977a4.6 4.6 0 0 1 1.6 1.051 4.6 4.6 0 0 1 1.051 1.6A4.95 4.95 0 0 1 8.63 9.977a4.6 4.6 0 0 1-1.6-1.051 4.6 4.6 0 0 1-1.052-1.6 4.6 4.6 0 0 1-1.051 1.6 4.2 4.2 0 0 1-1.6 1.097M41.469 38.937A2.46 2.46 0 0 1 39 36.47 2.46 2.46 0 0 1 41.469 34a2.46 2.46 0 0 1 2.468 2.469c0 1.371-1.143 2.468-2.468 2.468m0-4.206c-.96 0-1.783.778-1.783 1.783 0 .96.777 1.783 1.783 1.783.96 0 1.782-.777 1.782-1.783a1.785 1.785 0 0 0-1.782-1.783"/></svg>
